X:18
T:Master Crowley's
M:C|
R:reel
C:Traditional
K:Emin
B,E/E/EE B,EGE | FDA,D FDA,D | B,E (3(EGE) CEGE | FAdA FEED |
B,E/E/EE B,EGE | FDA,G, A,DFA, | B,E (3(EGE) CEGE | FAdA FEED :|
|: eb^ab fgeg | fdad bdad | eb^ab fgeg | fBAc BEED |
eb^ab fgeg | fdad bdad | EFGA B2 dB | AFDF FE E2 :|

%%newpage

